150588912_svg.svg

<?xml version="1.0" encoding="UTF-8"?>
<svg xmlns="http://www.w3.org/2000/svg" xmlns:xlink="http://www.w3.org/1999/xlink" width="3200px" height="2240px" viewBox="0 0 800 560" version="1.1">
<g id="surface1">
<rect x="0" y="0" width="800" height="560" style="fill:rgb(100%,100%,100%);fill-opacity:1;stroke:none;"/>
<path style="fill:none;stroke-width:49.045101;stroke-linecap:round;stroke-linejoin:round;stroke:rgb(0%,0%,0%);stroke-opacity:1;stroke-miterlimit:22.9256;" d="M 49.015059 2238.088279 C 1842.85447 2238.088279 3636.614052 2238.088279 4533.573672 2238.088279 C 5430.453463 2238.088279 5430.453463 2238.088279 5434.045772 2516.851451 C 5437.638081 2795.77428 5444.822698 3353.460281 5459.191934 3751.088962 C 5473.640999 4148.717644 5495.194852 4386.209178 5626.5137 4544.510257 C 5757.832548 4702.811336 5998.91639 4781.921961 6867.776172 4802.837182 C 7736.556124 4823.672574 9233.112015 4786.152903 9987.736373 4753.901952 C 10742.280902 4721.73083 10754.893898 4694.748598 10747.868939 4498.049728 C 10740.76415 4301.350858 10714.260893 3935.015179 10715.617987 3533.794188 C 10716.975082 3132.573197 10746.272357 2696.546725 10739.327226 2467.756562 C 10732.382096 2238.966399 10689.19456 2217.332717 9832.548629 2215.416819 C 8975.822868 2213.421091 7305.718542 2231.143149 6468.790396 2252.537344 C 5631.942078 2274.011368 5628.349769 2299.23736 5613.341901 2521.561367 C 5598.334032 2743.885374 5571.990434 3163.387225 5614.539337 3448.696381 C 5657.08824 3734.005538 5768.689304 3885.121999 5882.046607 3962.476385 C 5995.324081 4039.83077 6110.517454 4043.423079 6250.856988 3868.038575 C 6391.116694 3692.654071 6556.68222 3338.212925 6709.554922 3324.72181 C 6862.507452 3311.230694 7002.846987 3638.609779 7157.555757 3826.607279 C 7312.344356 4014.604778 7481.422362 4063.220692 7611.86309 3938.208342 C 7742.303818 3813.116163 7834.027439 3514.475549 7957.283549 3351.704041 C 8080.539659 3188.852704 8235.24843 3161.870472 8393.230193 3311.949156 C 8551.291785 3462.027839 8712.626369 3789.167437 8818.719225 3814.393428 C 8924.891911 3839.539591 8975.822868 3562.772147 9094.049746 3385.711232 C 9212.116966 3208.650317 9397.400276 3131.295932 9532.071946 3248.085886 C 9666.743615 3364.87584 9750.723815 3675.810134 9877.572234 3808.885221 C 10004.260994 3942.119967 10174.137291 3897.415679 10277.835275 3751.807424 C 10381.613088 3606.278999 10419.292417 3359.766779 10464.316022 3255.430162 C 10509.339627 3151.093546 10561.468021 3188.852704 10579.509394 3386.828839 C 10597.630597 3584.725145 10581.505122 3942.918258 10574.160846 4127.24362 C 10566.81657 4311.568981 10568.093835 4322.106421 10090.077263 4356.27327 C 9612.060691 4390.36029 8654.670452 4448.07672 7891.743869 4455.420996 C 7128.817286 4462.605614 6560.274529 4419.418078 6270.654602 4444.644069 C 5980.954846 4469.790232 5970.177919 4563.349921 5964.749541 4941.021331 C 5959.400992 5318.692741 5959.400992 5980.475871 5977.362537 6340.105908 C 5995.324081 6699.815773 6031.327 6757.372545 6322.782996 6798.724012 C 6614.238992 6840.155308 7161.148066 6865.30147 7790.839903 6852.768303 C 8420.53174 6840.155308 9133.00634 6789.783154 9503.652791 6732.226382 C 9874.219412 6674.589782 9903.037712 6609.848392 9909.583697 6435.501666 C 9916.209512 6261.154941 9900.563011 5977.202879 9861.366929 5918.847816 C 9822.011189 5860.492754 9759.105869 6027.81452 9687.100032 6169.990123 C 9615.174025 6312.085898 9534.147502 6429.03551 9427.575671 6450.03056 C 9320.844182 6470.945781 9188.567385 6395.986268 9086.625641 6286.061616 C 8984.683897 6176.136963 8913.077206 6031.406829 8832.609487 5988.857925 C 8752.221596 5946.309022 8662.813019 6005.94135 8588.41231 6104.131127 C 8514.09143 6202.400733 8454.698589 6339.068129 8358.424711 6425.443201 C 8262.150832 6511.818273 8129.075744 6547.821192 8010.369892 6462.32424 C 7891.584211 6376.907117 7787.247594 6169.990123 7675.72636 6062.939318 C 7564.125296 5955.888512 7445.419444 5948.703895 7366.308819 6039.549396 C 7287.118365 6130.394896 7247.523138 6319.270516 7143.186521 6443.404746 C 7038.849905 6567.538976 6869.69207 6626.931817 6716.819368 6478.529544 C 6563.866838 6330.127272 6427.119612 5973.850057 6319.190687 5948.703895 C 6211.261761 5923.477903 6132.071307 6229.382964 6107.483948 6472.063388 C 6082.89659 6714.823641 6112.912326 6894.439087 6286.221274 6980.654501 C 6459.530222 7066.869914 6776.13238 7059.605467 6938.025768 7057.849228 C 7099.998985 7056.013159 7107.183603 7059.605467 7101.835054 7174.79884 C 7096.406676 7289.912383 7078.365303 7516.62699 7068.546325 7709.094918 C 7058.647518 7901.642676 7056.811449 8059.943755 7122.430959 8147.196947 C 7188.130297 8234.450139 7321.285214 8250.655443 7395.04729 8341.500944 C 7468.809367 8432.346445 7483.258431 8597.832142 7437.356706 8736.415437 C 7391.454982 8874.918903 7285.282296 8986.440137 7252.951516 9067.46666 C 7220.540907 9148.413354 7261.892374 9198.785508 7308.672218 9208.684315 C 7355.531892 9218.583122 7407.580457 9188.008581 7387.862673 9117.838814 C 7368.065059 9047.669047 7276.261609 8937.904052 7197.150984 8844.344362 C 7117.96053 8750.784673 7051.383071 8673.430287 7051.383071 8605.096589 C 7051.383071 8536.683062 7117.96053 8477.290221 7203.457482 8420.611569 C 7288.874605 8364.012747 7393.211221 8309.968455 7431.050209 8083.333677 C 7468.809367 7856.619071 7440.070895 7457.234149 7427.4579 7252.153225 C 7414.844904 7046.992472 7418.437213 7036.215545 7499.383907 7031.745116 C 7580.330601 7027.274687 7738.711509 7029.030927 7853.825053 7032.623236 C 7968.938596 7036.215545 8040.944432 7041.643923 8084.371455 7041.324607 C 8127.878308 7041.00529 8142.886176 7035.018109 8150.948914 7055.693842 C 8159.091481 7076.449405 8160.288917 7123.788053 8173.460716 7286.000758 C 8186.632516 7448.213462 8211.858507 7725.300223 8222.635434 7907.869344 C 8233.412361 8090.518295 8229.820052 8178.649607 8174.89764 8252.411683 C 8120.134886 8326.17376 8013.962201 8385.5666 7938.364056 8474.655861 C 7862.76591 8563.665293 7817.822134 8682.450974 7861.88779 8785.909471 C 7905.953446 8889.288138 8039.108363 8977.499279 8106.643771 9049.425287 C 8174.01952 9121.431123 8175.855589 9177.151825 8141.68874 9192.47901 C 8107.521891 9207.726366 8037.352123 9182.580203 8029.209556 9126.779672 C 8021.146819 9071.058969 8075.111281 8984.683897 8123.727195 8913.63601 C 8172.26328 8842.508293 8215.450816 8786.787591 8211.858507 8705.840897 C 8208.266198 8624.814374 8157.894044 8518.721517 8089.480517 8442.245252 C 8021.146819 8365.768987 7934.771747 8318.989142 7892.462331 8264.146559 C 7850.232744 8209.224147 7852.068813 8146.318827 7857.417362 7933.973456 C 7862.76591 7721.707914 7871.786597 7360.08215 7876.257026 7172.962771 C 7880.807284 6985.843391 7880.807284 6973.230395 7931.179438 6969.638087 C 7981.551592 6966.045778 8082.295899 6971.474156 8258.638352 6975.944584 C 8434.980805 6980.494842 8686.761745 6984.087151 8817.521789 6984.645955 C 8948.202004 6985.284588 8957.861324 6982.889715 8965.045942 6996.380831 C 8972.310389 7009.871946 8977.020305 7039.24905 8980.293297 7135.762416 C 8983.646119 7232.355611 8985.402359 7396.085069 8988.196377 7587.674877 C 8990.830737 7779.264685 8994.423046 7998.794674 8985.402359 8127.399333 C 8976.461501 8256.003992 8954.827819 8293.842979 8895.514807 8334.316326 C 8836.121966 8374.789673 8738.969968 8417.977209 8677.820887 8495.331595 C 8616.591978 8572.68598 8591.445815 8684.207214 8630.083093 8781.359213 C 8668.8002 8878.511212 8771.380577 8961.293975 8832.529658 9031.463742 C 8893.678738 9101.633509 8913.476352 9159.190281 8894.636687 9194.23525 C 8875.717194 9229.360048 8818.160422 9241.973044 8789.342122 9213.154744 C 8760.60365 9184.336443 8760.60365 9114.166676 8805.547426 9036.812291 C 8850.571031 8959.457906 8940.458583 8874.918903 8989.074497 8793.094089 C 9037.610582 8711.189445 9044.875029 8632.07882 9007.036041 8571.80786 C 8969.276883 8511.536899 8886.49412 8470.105603 8817.282302 8432.346445 C 8747.990655 8394.587287 8692.190123 8360.340609 8681.413196 8265.024679 C 8670.55644 8169.708749 8704.803119 8013.16391 8708.395427 7781.978874 C 8711.987736 7550.793839 8685.005505 7244.968607 8676.064647 7086.587699 C 8667.04396 6928.28662 8676.064647 6917.509693 8868.532576 6912.081315 C 9061.080333 6906.732766 9436.995503 6906.732766 9662.83199 6887.813273 C 9888.588648 6868.893779 9964.186793 6831.134621 10003.78202 6761.842973 C 10043.377247 6692.631155 10046.889727 6591.886848 10041.461349 6208.148427 C 10036.1128 5824.330177 10021.823394 5157.597644 10021.583906 4838.440955 C 10021.424248 4519.204436 10035.474167 4547.623591 10200.880035 4551.934362 C 10366.285903 4556.245133 10682.888062 4536.36769 10824.983836 4495.894343 C 10967.079611 4455.420996 10934.82866 4394.271915 10924.929853 4009.256229 C 10915.031046 3624.240543 10927.564213 2915.358252 10930.278402 2564.589244 C 10932.912762 2213.740408 10925.807973 2220.925026 11819.095455 2226.193745 C 12712.382937 2231.462465 14506.222348 2234.735458 16299.98193 2238.088279 " transform="matrix(0.0489327,0,0,-0.0489327,0,560)"/>
</g>
</svg>

<?xml version="1.0" encoding="UTF-8" standalone="no"?>
<svg
   xmlns:dc="http://purl.org/dc/elements/1.1/"
   xmlns:cc="http://creativecommons.org/ns#"
   xmlns:rdf="http://www.w3.org/1999/02/22-rdf-syntax-ns#"
   xmlns:svg="http://www.w3.org/2000/svg"
   xmlns="http://www.w3.org/2000/svg"
   viewBox="0 0 3200 2240"
   height="2240"
   width="3200"
   xml:space="preserve"
   id="svg2"
   version="1.1"><metadata
     id="metadata8"><rdf:RDF><cc:Work
         rdf:about=""><dc:format>image/svg+xml</dc:format><dc:type
           rdf:resource="http://purl.org/dc/dcmitype/StillImage" /></cc:Work></rdf:RDF></metadata><defs
     id="defs6" /><g
     transform="matrix(1.3333333,0,0,-1.3333333,0,2240)"
     id="g10"><g
       transform="scale(0.1)"
       id="g12"><g
         transform="scale(1.47239)"
         id="g14"><path
           id="path16"
           style="fill:#ffffff;fill-opacity:1;fill-rule:evenodd;stroke:none"
           d="M 0,0 H 16300 V 11410 H 0 V 0" /></g><g
         transform="scale(1.46798)"
         id="g18"><path
           id="path20"
           style="fill:none;stroke:#000000;stroke-width:49.04510117;stroke-linecap:round;stroke-linejoin:round;stroke-miterlimit:22.92560005;stroke-dasharray:none;stroke-opacity:1"
           d="m 49.0498,2238.05 c 1793.7902,0 3587.5902,0 4484.4902,0 896.89,0 896.89,0 900.5,278.82 3.59,278.89 10.79,836.59 25.18,1234.21 14.39,397.63 35.98,635.1 167.31,793.41 131.34,158.31 372.41,237.47 1241.23,258.31 868.81,20.85 2365.36,-16.63 3119.94,-48.87 754.6,-32.23 767.2,-59.21 760.2,-255.9 -7.1,-196.66 -33.6,-563.02 -32.3,-964.25 1.4,-401.17 30.7,-837.21 23.7,-1066.03 -6.9,-228.82 -50.1,-250.41 -906.78,-252.32 -856.69,-1.97 -2526.81,15.74 -3363.7,37.13 -836.89,21.46 -840.48,46.66 -855.48,269.01 -14.99,222.28 -41.38,641.83 1.2,927.13 42.58,285.29 154.12,436.45 267.47,513.76 113.34,77.39 228.48,81 368.81,-94.41 140.33,-175.41 305.85,-529.85 458.77,-543.33 152.92,-13.49 293.25,313.9 447.96,501.91 154.77,188.01 323.84,236.58 454.29,111.58 130.46,-125.07 222.21,-423.71 345.45,-586.52 123.23,-162.81 277.93,-189.78 435.97,-39.71 158.04,150.07 319.35,477.19 425.48,502.39 106.14,25.14 157.09,-251.57 275.28,-428.69 118.12,-177.04 303.41,-254.36 438.09,-137.6 134.6,116.83 218.6,427.73 345.44,560.84 126.75,133.17 296.55,88.49 400.25,-57.09 103.8,-145.57 141.5,-392.03 186.5,-496.39 45,-104.37 97.2,-66.56 115.2,131.4 18.1,197.89 2,556.07 -5.3,740.41 -7.4,184.33 -6.1,194.89 -484.1,229.02 -478.02,34.13 -1435.39,91.83 -2198.35,99.12 -762.95,7.22 -1331.48,-35.97 -1621.13,-10.76 -289.66,25.2 -300.46,118.73 -305.85,496.41 -5.4,377.66 -5.4,1039.43 12.59,1399.1 17.99,359.67 53.97,417.24 345.42,458.62 291.46,41.38 838.38,66.57 1468.09,53.97 629.64,-12.59 1342.12,-62.96 1712.76,-120.53 370.58,-57.58 399.4,-122.35 405.94,-296.71 6.6,-174.36 -9,-458.31 -48.23,-516.64 -39.31,-58.32 -102.25,109 -174.26,251.13 -71.93,142.13 -152.93,259.06 -259.54,280.03 -106.68,20.96 -238.97,-54.04 -340.94,-163.95 -101.91,-109.89 -173.51,-254.66 -253.96,-297.23 -80.45,-42.55 -169.82,17.13 -244.21,115.33 -74.32,98.21 -133.72,234.93 -229.98,321.29 -96.26,86.36 -229.36,122.34 -348.1,36.89 -118.73,-85.47 -223.09,-292.37 -334.61,-399.41 -111.58,-107.05 -230.32,-114.24 -309.47,-23.39 -79.16,90.85 -118.74,279.76 -223.1,403.9 -104.36,124.13 -273.44,183.51 -426.38,35.08 -152.93,-148.42 -289.66,-504.65 -397.6,-529.83 -107.95,-25.18 -187.11,280.66 -211.7,523.39 -24.58,242.73 5.4,422.33 178.72,508.54 173.31,86.21 489.95,79.01 651.85,77.21 161.92,-1.8 169.14,1.8 163.76,116.94 -5.45,115.15 -23.43,341.83 -33.31,534.34 -9.88,192.5 -11.72,350.82 53.95,438.07 65.67,87.26 198.85,103.45 272.62,194.31 73.71,90.85 88.15,256.37 42.24,394.9 -45.85,138.53 -152.05,250.07 -184.4,331.04 -32.36,80.95 8.99,131.33 55.79,141.23 46.79,9.89 98.91,-20.69 79.15,-90.86 -19.82,-70.17 -111.58,-179.91 -190.74,-273.46 -79.15,-93.55 -145.71,-170.92 -145.71,-239.28 0,-68.36 66.56,-127.74 152.05,-184.41 85.42,-56.67 189.78,-110.65 227.59,-337.33 37.74,-226.69 8.99,-626.08 -3.61,-831.18 -12.6,-205.11 -8.99,-215.9 71.94,-220.39 80.99,-4.51 239.3,-2.7 354.43,0.89 115.12,3.6 187.13,9 230.59,8.7 43.46,-0.3 58.45,-6.29 66.56,14.39 8.1,20.69 9.33,68.07 22.47,230.28 13.22,162.23 38.42,439.29 49.19,621.89 10.83,182.61 7.22,270.77 -47.69,344.53 -54.83,73.77 -160.97,133.13 -236.58,222.19 -75.55,89.05 -120.51,207.8 -76.43,311.25 44.07,103.45 177.18,191.6 244.69,263.57 67.44,71.96 69.28,127.73 35.08,143.02 -34.2,15.3 -104.36,-9.89 -112.47,-65.67 -8.1,-55.77 45.92,-142.12 94.49,-213.19 48.56,-71.07 91.76,-126.83 88.14,-207.79 -3.61,-80.96 -53.95,-187.11 -122.34,-263.57 -68.39,-76.46 -154.7,-123.24 -197.01,-178.12 -42.3,-54.86 -40.46,-117.83 -35.08,-330.13 5.38,-212.29 14.37,-573.91 18.87,-761.02 4.5,-187.1 4.5,-199.7 54.91,-203.3 50.34,-3.59 151.09,1.81 327.45,6.31 176.3,4.49 428.14,8.09 558.87,8.69 130.72,0.6 140.33,-1.8 147.55,11.69 7.22,13.5 11.99,42.88 15.26,139.43 3.34,96.55 5.11,260.27 7.83,451.88 2.66,191.6 6.27,411.09 -2.72,539.73 -9,128.63 -30.59,166.41 -89.92,206.89 -59.41,40.48 -156.54,83.66 -217.72,161.02 -61.17,77.36 -86.38,188.91 -47.68,286.06 38.69,97.15 141.28,179.91 202.38,250.07 61.18,70.17 81,127.74 62.13,162.82 -18.94,35.08 -76.5,47.68 -105.25,18.89 -28.81,-28.78 -28.81,-98.95 16.15,-176.31 45.03,-77.37 134.95,-161.92 183.52,-243.78 48.57,-81.86 55.79,-161.02 17.98,-221.29 -37.74,-60.27 -120.51,-101.65 -189.78,-139.43 -69.28,-37.78 -125.07,-71.96 -135.84,-167.32 -10.83,-95.35 23.37,-251.87 26.98,-483.05 3.61,-231.19 -23.37,-537.03 -32.36,-695.36 -8.99,-158.32 0,-169.11 192.51,-174.5 192.51,-5.41 568.47,-5.41 794.29,-24.3 225.75,-18.89 301.37,-56.67 340.97,-125.93 39.6,-69.27 43.1,-170.02 37.7,-553.77 -5.4,-383.75 -19.7,-1050.49 -19.9,-1369.68 -0.2,-319.21 13.9,-290.81 179.3,-286.51 165.4,4.29 482,-15.54 624.1,-56 142.1,-40.46 109.8,-101.64 99.9,-486.66 -9.9,-385.02 2.7,-1093.88 5.4,-1444.71 2.6,-350.82 -4.5,-343.6 888.8,-338.35 893.3,5.24 2687.1,8.51 4480.9,11.85" /></g></g></g></svg>
